X: 14121
T: Frieze Breeches, The
R: jig
M: 6/8
K: Dmajor
A2 B c2 B|c2 d cAG|~A2 d dcd|(3.g.f.e .d cAG|
~A2 B cAG|dcB {d/}cAG|F.A.A {A/}GE{B/}A|~D3 {A/}D3:|

